src/sections/david-yurman/media/logo.svg

<svg viewBox="0 0 114.99 82.82" xmlns="http://www.w3.org/2000/svg"><g transform="translate(-.52 .33)"><path d="m39.57 3c18.6 0 32.38 10.41 32.15 21.43a23.84 23.84 0 0 1 -1.59 8.43c-4.67 11.71-19.13 14.88-36.54 14.88-6 0-9.72 0-15.39-1.11v-43.63zm-5 48.45c28 0 50.53-12.07 49.23-27.34-1.13-14.45-18.9-24.44-41.41-24.44h-41a12.06 12.06 0 0 1 3.76 1.9 2.94 2.94 0 0 1 1.19 2.17v43.68a3.12 3.12 0 0 1 -1.07 2c-1.15 1.15-4.45 1.98-4.75 2.03z" fill="#fff"/><path d="m48.36 46.38 16.9-17.23 12.35 11.14-16.91 17.23z" fill="#0c0c0c"/><path d="m81.1 77.11a4.25 4.25 0 0 0 1.35 3.41c1.45 1.1 5.5 2 5.69 2h-29.42c.29-.06 3.86-.93 5.31-2.08 1.26-.93 2.12-1.79 2.12-3l.09-23.17-26.82-25.55a19.56 19.56 0 0 0 -4.69-3.45 44.23 44.23 0 0 0 -7.24-2.77h31.27c-.2 0-4.54 1-5.31 2.37s.73 2.75 2.08 4l22.39 21.25 17.66-20.36c1.45-1.67 3.23-4 3-4.78-.48-1.33-2.23-2.08-4.35-2.42h21.27a16.85 16.85 0 0 0 -6.37 2.37 13.89 13.89 0 0 0 -3.8 3.51l-24.23 26z" fill="#fff"/></g></svg>

<svg id="Camada_1" data-name="Camada 1" xmlns="http://www.w3.org/2000/svg" viewBox="0 0 114.99 82.82"><defs><style>.cls-1{fill:#fff;}.cls-2{fill:#0c0c0c;}</style></defs><title>logo</title><path class="cls-1" d="M39.57,3c18.6,0,32.38,10.41,32.15,21.43a23.84,23.84,0,0,1-1.59,8.43C65.46,44.57,51,47.74,33.59,47.74c-6,0-9.72,0-15.39-1.11V3H39.57m-5,48.45c28,0,50.53-12.07,49.23-27.34C82.67,9.66,64.9-.33,42.39-.33h-41a12.06,12.06,0,0,1,3.76,1.9A2.94,2.94,0,0,1,6.34,3.74V47.42a3.12,3.12,0,0,1-1.07,2C4.12,50.57.82,51.4.52,51.45Z" transform="translate(-0.52 0.33)"/><path class="cls-2" d="M48.36,46.38l16.9-17.23L77.61,40.29,60.7,57.52Z" transform="translate(-0.52 0.33)"/><path class="cls-1" d="M81.1,77.11a4.25,4.25,0,0,0,1.35,3.41c1.45,1.1,5.5,2,5.69,2H58.72c.29-.06,3.86-.93,5.31-2.08,1.26-.93,2.12-1.79,2.12-3l.09-23.17L39.42,28.72a19.56,19.56,0,0,0-4.69-3.45,44.23,44.23,0,0,0-7.24-2.77H58.76c-.2,0-4.54,1-5.31,2.37s.73,2.75,2.08,4L77.92,50.12,95.58,29.76c1.45-1.67,3.23-4,3-4.78-.48-1.33-2.23-2.08-4.35-2.42H115.5a16.85,16.85,0,0,0-6.37,2.37,13.89,13.89,0,0,0-3.8,3.51l-24.23,26V77.11" transform="translate(-0.52 0.33)"/></svg>
